X:9
T:MARQUIS OF BOWMONT -- REEL.
R:reel
C:SCOTCH.
B:Coles
Z:John Walsh <walsh:mat:h.ubc.ca>
M:C|
L:1/8
K:Bb
uB|vFBEB DBFB|DdcB cCCB|FBEB DBFB|DdcA BB,B,B|\
FBEB DBFB|DdcB cCCB|DBFB EBDB|FBcA BB,B,|]
uB|vfBdB fBdB|cF"4"AF cF"4"AF|fBdB fBdB|FdcA BB,B,B|\
fBdB fBdB|cF"4"AF cF"4"AF|fBgB aBbB|dBcA BB,B,|]
